src/static/img/advantages/catalog-image.svg

<svg width="100" height="100" viewBox="0 0 100 100" fill="none" xmlns="http://www.w3.org/2000/svg">
<g>
<path d="M38.2083 77.7193C32.0663 77.7193 27.0685 82.7165 27.0685 88.858C27.0685 95.0017 32.0663 100 38.2083 100C44.3504 100 49.3481 95.0017 49.3481 88.858C49.3476 82.7165 44.3504 77.7193 38.2083 77.7193ZM38.2083 93.1919C35.8198 93.1919 33.8767 91.2476 33.8767 88.858C33.8767 86.47 35.8198 84.5274 38.2083 84.5274C40.5968 84.5274 42.54 86.47 42.54 88.858C42.5394 91.2476 40.5968 93.1919 38.2083 93.1919Z" fill="#114B63"/>
<path d="M76.3265 77.7193C70.1844 77.7193 65.1867 82.7165 65.1867 88.858C65.1867 95.0017 70.1844 100 76.3265 100C82.4697 100 87.4674 95.0017 87.4674 88.858C87.4674 82.7165 82.4697 77.7193 76.3265 77.7193ZM76.3265 93.1919C73.9379 93.1919 71.9948 91.2476 71.9948 88.858C71.9948 86.47 73.9379 84.5274 76.3265 84.5274C78.7155 84.5274 80.6593 86.47 80.6593 88.858C80.6593 91.2476 78.7155 93.1919 76.3265 93.1919Z" fill="#114B63"/>
<path d="M86.6958 76.3219L99.8905 25.5821H21.681L17.873 10.9373H0.109497V17.7454H12.6081L27.8401 76.3214H86.6958V76.3219ZM65.1867 47.0339V54.8706H49.3476V47.0339H65.1867ZM49.3476 40.2258V32.3908H65.1867V40.2258H49.3476ZM71.9948 47.0339H87.2768L85.2389 54.8706H71.9948V47.0339ZM65.1867 61.6788V69.5144H49.3476V61.6788H65.1867ZM42.5394 54.8706H29.2971L27.2592 47.0339H42.5394V54.8706ZM31.0677 61.6788H42.5394V69.5144H33.1045L31.0677 61.6788ZM71.9948 69.5138V61.6782H83.4687L81.4308 69.5138H71.9948ZM89.0474 40.2258H71.9948V32.3908H91.0848L89.0474 40.2258ZM42.5394 32.3908V40.2258H25.4885L23.4512 32.3908H42.5394Z" fill="#114B63"/>
<path d="M54.6516 14.8531L62.1338 22.3358L66.9483 17.5224L59.4656 10.0386L63.7564 5.74833L44.6131 0L50.3614 19.1433L54.6516 14.8531Z" fill="#114B63"/>
</g>
</svg>

<svg width="100" height="100" fill="none" xmlns="http://www.w3.org/2000/svg"><g fill="#114B63"><path d="M38.208 77.72c-6.142 0-11.14 4.996-11.14 11.138 0 6.144 4.998 11.142 11.14 11.142s11.14-4.998 11.14-11.142c0-6.142-4.998-11.139-11.14-11.139Zm0 15.472a4.338 4.338 0 0 1-4.331-4.334 4.336 4.336 0 0 1 4.331-4.33 4.336 4.336 0 0 1 4.332 4.33 4.338 4.338 0 0 1-4.332 4.334ZM76.326 77.72c-6.142 0-11.14 4.996-11.14 11.138 0 6.144 4.998 11.142 11.14 11.142 6.144 0 11.141-4.998 11.141-11.142 0-6.142-4.997-11.139-11.14-11.139Zm0 15.472a4.338 4.338 0 0 1-4.331-4.334 4.336 4.336 0 0 1 4.331-4.33 4.337 4.337 0 0 1 4.333 4.33 4.338 4.338 0 0 1-4.333 4.334Zm10.37-16.87 13.195-50.74H21.68l-3.808-14.645H.109v6.808h12.5L27.84 76.321h58.856Zm-21.51-29.288v7.837H49.349v-7.837h15.839Zm-15.838-6.808V32.39h15.839v7.835h-15.84Zm22.647 6.808h15.282l-2.038 7.837H71.995v-7.837Zm-6.808 14.645v7.835h-15.84V61.68h15.84ZM42.539 54.87H29.297l-2.038-7.837h15.28v7.837Zm-11.471 6.808h11.471v7.835h-9.434l-2.037-7.835Zm40.927 7.835v-7.836h11.474l-2.038 7.836h-9.436Zm17.052-29.288H71.995V32.39h19.09l-2.038 7.835ZM42.54 32.39v7.835H25.49l-2.04-7.835h19.09Z"/><path d="m54.652 14.853 7.482 7.483 4.814-4.814-7.482-7.483 4.29-4.29L44.613 0l5.748 19.143 4.29-4.29Z"/></g></svg>
